src/svg/favourite.svg

<svg width="25" height="25" viewBox="0 0 25 25" fill="none" xmlns="http://www.w3.org/2000/svg">
<path d="M12.5 7.8124L12.0352 8.26683L12.5 8.74214L12.9647 8.26683L12.5 7.8124ZM13.5686 6.71952L14.0333 7.17395L13.5686 6.71952ZM11.4314 6.71952L11.8961 6.26509L11.4314 6.71952ZM4.40191 13.5928L3.93716 14.0472L4.40191 13.5928ZM20.5981 13.5928L20.1333 13.1384L20.5981 13.5928ZM11.7969 21.1558L12.2616 20.7014L11.7969 21.1558ZM13.2031 21.1558L13.6678 21.6102L13.2031 21.1558ZM12.2616 20.7014L4.86667 13.1384L3.93716 14.0472L11.3321 21.6102L12.2616 20.7014ZM10.9666 7.17394L12.0352 8.26683L12.9647 7.35797L11.8961 6.26509L10.9666 7.17394ZM12.9647 8.26683L14.0333 7.17395L13.1038 6.26509L12.0352 7.35797L12.9647 8.26683ZM20.1333 13.1384L12.7383 20.7014L13.6678 21.6102L21.0628 14.0472L20.1333 13.1384ZM14.0333 7.17395C15.7066 5.46266 18.46 5.46266 20.1333 7.17394L21.0628 6.26509C18.8796 4.03227 15.287 4.03228 13.1038 6.26509L14.0333 7.17395ZM4.86666 7.17394C6.53992 5.46266 9.29337 5.46266 10.9666 7.17394L11.8961 6.26509C9.71294 4.03228 6.12035 4.03227 3.93716 6.26509L4.86666 7.17394ZM4.86667 13.1384C3.24575 11.4806 3.24575 8.8317 4.86666 7.17394L3.93716 6.26509C1.82225 8.42806 1.82225 11.8842 3.93716 14.0472L4.86667 13.1384ZM20.1333 7.17394C21.7542 8.8317 21.7542 11.4806 20.1333 13.1384L21.0628 14.0472C23.1777 11.8842 23.1777 8.42806 21.0628 6.26509L20.1333 7.17394ZM11.3321 21.6102C11.9728 22.2655 13.0271 22.2655 13.6678 21.6102L12.7383 20.7014C12.6076 20.8351 12.3924 20.8351 12.2616 20.7014L11.3321 21.6102Z" fill="#101F33"/>
</svg>

<svg xmlns="http://www.w3.org/2000/svg" width="25" height="25" fill="none"><path d="M12.5 7.812l-.465.454.465.475.465-.475-.465-.454zm1.069-1.093l.465.454-.465-.454zm-2.137 0l.465-.454-.465.454zm-7.029 6.873l-.465.454.465-.454zm16.196 0l-.465-.454.465.454zm-8.801 7.563l.465-.454-.465.454zm1.406 0l.465.454-.465-.454zm-.941-.454l-7.395-7.563-.93.909 7.395 7.563.929-.909zM10.967 7.174l1.069 1.093.93-.909-1.069-1.093-.93.909zm1.998 1.093l1.069-1.093-.93-.909-1.069 1.093.93.909zm7.169 4.872l-7.395 7.563.929.909 7.395-7.563-.93-.909zm-6.1-5.964c1.673-1.711 4.427-1.711 6.1 0l.93-.909c-2.183-2.233-5.776-2.233-7.959 0l.93.909zm-9.167 0c1.673-1.711 4.427-1.711 6.1 0l.93-.909c-2.183-2.233-5.776-2.233-7.959 0l.93.909zm0 5.964c-1.621-1.658-1.621-4.307 0-5.964l-.93-.909c-2.115 2.163-2.115 5.619 0 7.782l.93-.909zm15.267-5.964c1.621 1.658 1.621 4.307 0 5.964l.93.909c2.115-2.163 2.115-5.619 0-7.782l-.93.909zM11.332 21.61c.641.655 1.695.655 2.336 0l-.929-.909c-.131.134-.346.134-.477 0l-.929.909z" fill="#101f33"/></svg>
